images/zhuyin/23.svg

<svg width="50" height="50" viewBox="0 0 50 50" fill="none" xmlns="http://www.w3.org/2000/svg">
<path d="M27.625 15.4297C28.0156 15.4297 28.4688 15.6328 28.9844 16.0391C29.5781 16.6172 29.875 17.1016 29.875 17.4922C29.875 17.6172 29.7344 17.7656 29.4531 17.9375C29.1406 18.2031 28.7812 19.0547 28.375 20.4922C27.6562 22.5703 26.9531 24.2812 26.2656 25.625C27.8281 26.7031 29.5312 28.0781 31.375 29.75C32.1875 30.5312 32.5938 31.3438 32.5938 32.1875C32.5938 33.1875 32.4062 33.6875 32.0312 33.6875C31.7812 33.6875 31.1719 33.1328 30.2031 32.0234C28.375 29.9609 26.7734 28.3125 25.3984 27.0781C24.2266 28.7344 23.1562 30.0312 22.1875 30.9688C20.9844 32.0625 19.75 32.9219 18.4844 33.5469C17.7344 33.8281 17.3125 33.9688 17.2188 33.9688H17.125C17.125 33.8438 17.2188 33.7188 17.4062 33.5938C19.4844 31.9688 21.0781 30.4062 22.1875 28.9062C22.8906 27.9375 23.5312 26.9453 24.1094 25.9297C22.2812 24.3516 20.4375 22.9453 18.5781 21.7109L18.3438 21.5234C18.3438 21.4609 18.4062 21.4297 18.5312 21.4297C18.75 21.4297 19.3203 21.5938 20.2422 21.9219C21.3984 22.4531 22.9219 23.3516 24.8125 24.6172L25.375 23.4922C26.25 21.4922 26.875 19.7344 27.25 18.2188C27.5 17.2188 27.5625 16.5312 27.4375 16.1562C27.3125 15.9062 27.25 15.7188 27.25 15.5938C27.25 15.4844 27.375 15.4297 27.625 15.4297Z" fill="#333333"/>
<path d="M28.9844 16.0391L29.3332 15.6808L29.3144 15.6625L29.2938 15.6463L28.9844 16.0391ZM29.4531 17.9375L29.1924 17.5109L29.1591 17.5312L29.1293 17.5565L29.4531 17.9375ZM28.375 20.4922L28.8475 20.6556L28.8522 20.642L28.8562 20.6282L28.375 20.4922ZM26.2656 25.625L25.8205 25.3973L25.6208 25.7876L25.9817 26.0365L26.2656 25.625ZM31.375 29.75L31.7216 29.3896L31.7163 29.3845L31.7109 29.3796L31.375 29.75ZM30.2031 32.0234L30.5798 31.6946L30.5773 31.6918L30.2031 32.0234ZM25.3984 27.0781L25.7325 26.7061L25.3146 26.3309L24.9903 26.7893L25.3984 27.0781ZM22.1875 30.9688L22.5238 31.3387L22.5296 31.3335L22.5352 31.3281L22.1875 30.9688ZM18.4844 33.5469L18.6599 34.015L18.6833 34.0063L18.7058 33.9952L18.4844 33.5469ZM17.125 33.9688H16.625V34.4688H17.125V33.9688ZM17.4062 33.5938L17.6836 34.0098L17.6993 33.9993L17.7142 33.9876L17.4062 33.5938ZM22.1875 28.9062L22.5895 29.2036L22.5921 29.1999L22.1875 28.9062ZM24.1094 25.9297L24.5439 26.177L24.7473 25.8198L24.4361 25.5512L24.1094 25.9297ZM18.5781 21.7109L18.2658 22.1014L18.2831 22.1152L18.3016 22.1275L18.5781 21.7109ZM18.3438 21.5234H17.8438V21.7638L18.0314 21.9139L18.3438 21.5234ZM20.2422 21.9219L20.4509 21.4675L20.4308 21.4583L20.4098 21.4508L20.2422 21.9219ZM24.8125 24.6172L24.5344 25.0327L25.0059 25.3484L25.2597 24.8408L24.8125 24.6172ZM25.375 23.4922L25.8222 23.7158L25.8279 23.7043L25.8331 23.6926L25.375 23.4922ZM27.25 18.2188L26.7649 18.0975L26.7646 18.0987L27.25 18.2188ZM27.4375 16.1562L27.9118 15.9981L27.9006 15.9644L27.8847 15.9326L27.4375 16.1562ZM27.625 15.9297C27.8494 15.9297 28.1928 16.0519 28.6749 16.4318L29.2938 15.6463C28.7447 15.2137 28.1819 14.9297 27.625 14.9297V15.9297ZM28.6356 16.3973C28.915 16.6693 29.1067 16.9026 29.226 17.0972C29.3469 17.2944 29.375 17.4219 29.375 17.4922H30.375C30.375 17.1719 30.2547 16.8618 30.0786 16.5747C29.9011 16.2849 29.6475 15.9869 29.3332 15.6808L28.6356 16.3973ZM29.375 17.4922C29.375 17.4277 29.3934 17.3822 29.404 17.3617C29.4138 17.3425 29.4192 17.3401 29.4066 17.3534C29.3792 17.3822 29.3154 17.4357 29.1924 17.5109L29.7139 18.3641C29.8721 18.2674 30.0192 18.1607 30.1325 18.0411C30.2379 17.9299 30.375 17.743 30.375 17.4922H29.375ZM29.1293 17.5565C28.875 17.7727 28.6697 18.1519 28.4886 18.581C28.2975 19.0337 28.0996 19.6281 27.8938 20.3562L28.8562 20.6282C29.0566 19.9188 29.2416 19.3686 29.4099 18.9698C29.5882 18.5474 29.7188 18.3679 29.7769 18.3185L29.1293 17.5565ZM27.9025 20.3288C27.1882 22.3938 26.4938 24.0813 25.8205 25.3973L26.7107 25.8527C27.4125 24.4812 28.1243 22.7468 28.8475 20.6556L27.9025 20.3288ZM25.9817 26.0365C27.5214 27.099 29.207 28.4591 31.0391 30.1204L31.7109 29.3796C29.8555 27.6972 28.1349 26.3073 26.5496 25.2135L25.9817 26.0365ZM31.0284 30.1104C31.7771 30.8303 32.0938 31.5209 32.0938 32.1875H33.0938C33.0938 31.1666 32.5979 30.2322 31.7216 29.3896L31.0284 30.1104ZM32.0938 32.1875C32.0938 32.6705 32.0466 32.9727 31.985 33.1369C31.9554 33.2158 31.9346 33.2294 31.9452 33.22C31.966 33.2015 32.0021 33.1875 32.0312 33.1875V34.1875C32.2479 34.1875 32.448 34.111 32.6095 33.9675C32.7607 33.8331 32.8571 33.6592 32.9213 33.4881C33.0472 33.1523 33.0938 32.7045 33.0938 32.1875H32.0938ZM32.0312 33.1875C32.1229 33.1875 32.143 33.225 32.0475 33.1634C31.9729 33.1152 31.866 33.0316 31.7233 32.9017C31.4396 32.6435 31.0597 32.2442 30.5797 31.6946L29.8265 32.3523C30.3153 32.9121 30.7245 33.3448 31.0501 33.6412C31.2122 33.7887 31.365 33.9131 31.5052 34.0036C31.6246 34.0806 31.8146 34.1875 32.0312 34.1875V33.1875ZM30.5773 31.6918C28.742 29.6212 27.1266 27.9577 25.7325 26.7061L25.0644 27.4502C26.4202 28.6673 28.008 30.3006 29.829 32.3551L30.5773 31.6918ZM24.9903 26.7893C23.8283 28.4316 22.7781 29.7014 21.8398 30.6094L22.5352 31.3281C23.5344 30.3611 24.6248 29.0372 25.8066 27.3669L24.9903 26.7893ZM21.8512 30.5988C20.6774 31.6658 19.4811 32.497 18.263 33.0986L18.7058 33.9952C20.0189 33.3467 21.2913 32.4592 22.5238 31.3387L21.8512 30.5988ZM18.3088 33.0787C17.9358 33.2186 17.6496 33.3215 17.4474 33.3889C17.3457 33.4228 17.2707 33.4459 17.219 33.46C17.1458 33.48 17.1649 33.4688 17.2188 33.4688V34.4688C17.3195 34.4688 17.4265 34.4399 17.4821 34.4248C17.5594 34.4037 17.6543 34.3741 17.7636 34.3376C17.9832 34.2644 18.2829 34.1564 18.6599 34.015L18.3088 33.0787ZM17.2188 33.4688H17.125V34.4688H17.2188V33.4688ZM17.625 33.9688C17.625 34.0014 17.6186 34.0295 17.6107 34.0506C17.6032 34.0706 17.5957 34.0808 17.5953 34.0812C17.5951 34.0815 17.6004 34.0746 17.6154 34.0612C17.6303 34.048 17.6523 34.0306 17.6836 34.0098L17.1289 33.1777C16.9112 33.3229 16.625 33.5783 16.625 33.9688H17.625ZM17.7142 33.9876C19.8145 32.3453 21.4448 30.7514 22.5895 29.2036L21.7855 28.6089C20.7115 30.0611 19.1542 31.5922 17.0983 33.1999L17.7142 33.9876ZM22.5921 29.1999C23.3058 28.2167 23.9565 27.209 24.5439 26.177L23.6748 25.6823C23.106 26.6816 22.4754 27.6583 21.7829 28.6126L22.5921 29.1999ZM24.4361 25.5512C22.5933 23.9605 20.7329 22.5413 18.8547 21.2944L18.3016 22.1275C20.1421 23.3493 21.9692 24.7427 23.7826 26.3082L24.4361 25.5512ZM18.8905 21.3205L18.6561 21.133L18.0314 21.9139L18.2658 22.1014L18.8905 21.3205ZM18.8438 21.5234C18.8438 21.5953 18.8243 21.6805 18.7715 21.7598C18.7207 21.8359 18.6579 21.8785 18.6142 21.9003C18.541 21.937 18.4943 21.9297 18.5312 21.9297V20.9297C18.4432 20.9297 18.3027 20.938 18.167 21.0059C18.0921 21.0434 18.0058 21.1055 17.9394 21.2051C17.871 21.3078 17.8438 21.4203 17.8438 21.5234H18.8438ZM18.5312 21.9297C18.5294 21.9297 18.5389 21.9297 18.5635 21.933C18.587 21.9361 18.6186 21.9415 18.6594 21.95C18.7416 21.9671 18.8492 21.9942 18.9848 22.0332C19.2558 22.1112 19.618 22.2304 20.0745 22.3929L20.4098 21.4508C19.9445 21.2852 19.5606 21.1583 19.2613 21.0722C18.9828 20.9921 18.721 20.9297 18.5312 20.9297V21.9297ZM20.0334 22.3762C21.1538 22.891 22.6515 23.7723 24.5344 25.0327L25.0906 24.2017C23.1923 22.9309 21.6431 22.0153 20.4509 21.4675L20.0334 22.3762ZM25.2597 24.8408L25.8222 23.7158L24.9278 23.2686L24.3653 24.3936L25.2597 24.8408ZM25.8331 23.6926C26.7153 21.676 27.3515 19.8904 27.7354 18.3388L26.7646 18.0987C26.3985 19.5784 25.7847 21.3083 24.9169 23.2918L25.8331 23.6926ZM27.7351 18.34C27.8636 17.826 27.9479 17.3769 27.9823 16.9984C28.0158 16.6297 28.0067 16.2828 27.9118 15.9981L26.9632 16.3144C26.9933 16.4047 27.0154 16.5891 26.9864 16.9079C26.9583 17.2168 26.8864 17.6115 26.7649 18.0975L27.7351 18.34ZM27.8847 15.9326C27.8288 15.8209 27.7926 15.7342 27.7712 15.67C27.7483 15.6012 27.75 15.5806 27.75 15.5938H26.75C26.75 15.8462 26.8633 16.1259 26.9903 16.3799L27.8847 15.9326ZM27.75 15.5938C27.75 15.6688 27.726 15.7529 27.6712 15.825C27.6213 15.8905 27.5665 15.919 27.5442 15.9288C27.5221 15.9384 27.5147 15.9374 27.5331 15.9347C27.5499 15.9323 27.5795 15.9297 27.625 15.9297V14.9297C27.4789 14.9297 27.3017 14.9433 27.1433 15.0126C27.0585 15.0497 26.9569 15.1125 26.8757 15.219C26.7896 15.332 26.75 15.464 26.75 15.5938H27.75Z" fill="#333333"/>
</svg>

<svg xmlns="http://www.w3.org/2000/svg" width="50" height="50" fill="none"><path fill="#333" d="M27.625 15.43c.39 0 .844.203 1.36.61.593.577.89 1.062.89 1.452 0 .125-.14.274-.422.445-.312.266-.672 1.118-1.078 2.555-.719 2.078-1.422 3.79-2.11 5.133 1.563 1.078 3.266 2.453 5.11 4.125.813.781 1.219 1.594 1.219 2.438 0 1-.188 1.5-.563 1.5-.25 0-.86-.555-1.828-1.665-1.828-2.062-3.43-3.71-4.805-4.945-1.171 1.656-2.242 2.953-3.21 3.89-1.204 1.095-2.438 1.954-3.704 2.579-.75.281-1.172.422-1.265.422h-.094c0-.125.094-.25.281-.375 2.078-1.625 3.672-3.188 4.782-4.688a32.12 32.12 0 0 0 1.921-2.976 55.238 55.238 0 0 0-5.53-4.22l-.235-.187c0-.062.062-.093.187-.093.219 0 .79.164 1.711.492 1.156.531 2.68 1.43 4.57 2.695l.563-1.125c.875-2 1.5-3.758 1.875-5.273.25-1 .313-1.688.188-2.063-.125-.25-.188-.437-.188-.562 0-.11.125-.164.375-.164Z"/><path fill="#333" d="m28.984 16.04.35-.36-.02-.018-.02-.016-.31.393Zm.47 1.898-.262-.427-.033.02-.03.026.324.38Zm-1.079 2.554.473.164.004-.014.004-.014-.481-.136Zm-2.11 5.133-.445-.228-.2.39.362.25.284-.412Zm5.11 4.125.347-.36-.006-.006-.005-.004-.336.37Zm-1.172 2.273.377-.328-.003-.003-.374.331Zm-4.805-4.945.335-.372-.418-.375-.325.458.408.29Zm-3.21 3.89.336.37.006-.005.005-.005-.348-.36Zm-3.704 2.579.176.468.023-.009.023-.01-.222-.45Zm-1.359.422h-.5v.5h.5v-.5Zm.281-.375.278.416.015-.01.015-.012-.308-.394Zm4.782-4.688.402.298.002-.004-.404-.294Zm1.921-2.976.435.247.203-.357-.31-.269-.328.379Zm-5.53-4.22-.313.391.017.014.019.013.276-.417Zm-.235-.187h-.5v.24l.187.15.313-.39Zm1.898.399.209-.454-.02-.01-.021-.007-.168.47Zm4.57 2.695-.278.416.472.315.254-.507-.448-.224Zm.563-1.125.447.224.006-.012.005-.011-.458-.2Zm1.875-5.273-.485-.122v.002l.485.12Zm.188-2.063.474-.158-.011-.034-.016-.031-.448.223Zm.187-.226c.224 0 .568.122 1.05.502l.619-.786c-.55-.432-1.112-.716-1.669-.716v1Zm1.01.467c.28.272.472.506.591.7.12.197.149.325.149.395h1c0-.32-.12-.63-.296-.917a4.77 4.77 0 0 0-.746-.894l-.697.716Zm.74 1.095c0-.064.018-.11.029-.13.01-.02.015-.022.003-.009a1.122 1.122 0 0 1-.215.158l.522.853c.158-.097.305-.203.419-.323.105-.111.242-.298.242-.549h-1Zm-.246.064c-.254.217-.46.596-.64 1.025a15.718 15.718 0 0 0-.595 1.775l.962.272c.2-.71.386-1.26.554-1.658.178-.423.309-.602.367-.651l-.648-.762Zm-1.227 2.773c-.714 2.065-1.408 3.752-2.082 5.068l.89.456c.703-1.372 1.414-3.106 2.137-5.197l-.945-.327Zm-1.92 5.707c1.54 1.063 3.225 2.423 5.057 4.084l.672-.74c-1.855-1.683-3.576-3.073-5.161-4.166l-.568.823Zm5.046 4.074c.75.72 1.066 1.41 1.066 2.078h1c0-1.021-.496-1.956-1.372-2.798l-.694.72Zm1.066 2.078c0 .482-.047.785-.109.949-.03.079-.05.092-.04.083a.143.143 0 0 1 .086-.032v1a.859.859 0 0 0 .578-.22 1.19 1.19 0 0 0 .312-.48c.126-.336.173-.783.173-1.3h-1Zm-.063 1c.092 0 .112.037.017-.025a2.688 2.688 0 0 1-.325-.261c-.283-.258-.663-.658-1.143-1.207l-.753.657c.488.56.897.993 1.223 1.29.162.147.315.271.455.362.12.077.31.184.526.184v-1Zm-1.454-1.496c-1.835-2.07-3.45-3.734-4.845-4.986l-.668.744c1.356 1.217 2.944 2.85 4.765 4.905l.748-.663Zm-5.587-4.903c-1.162 1.643-2.212 2.912-3.15 3.82l.695.72c1-.968 2.09-2.292 3.272-3.962l-.817-.578Zm-3.139 3.81c-1.174 1.067-2.37 1.898-3.588 2.5l.443.896c1.313-.648 2.585-1.536 3.818-2.656l-.673-.74Zm-3.542 2.48c-.373.14-.66.242-.862.31a4.584 4.584 0 0 1-.228.071c-.073.02-.054.009 0 .009v1c.1 0 .207-.03.263-.044a5.48 5.48 0 0 0 .282-.087c.22-.074.519-.182.896-.323l-.351-.936Zm-1.09.39h-.094v1h.094v-1Zm.406.5c0 .032-.006.06-.014.082a.127.127 0 0 1-.016.03l.02-.02a.625.625 0 0 1 .069-.051l-.555-.832c-.218.145-.504.4-.504.79h1Zm.09.019c2.1-1.643 3.73-3.237 4.875-4.784l-.805-.595c-1.073 1.452-2.63 2.983-4.687 4.59l.616.789Zm4.877-4.788a32.577 32.577 0 0 0 1.952-3.023l-.87-.495c-.568 1-1.199 1.976-1.891 2.93l.81.588Zm1.844-3.649a55.74 55.74 0 0 0-5.581-4.257l-.553.834a54.706 54.706 0 0 1 5.48 4.18l.654-.757Zm-5.546-4.23-.234-.188-.625.78.235.188.625-.78Zm-.046.202a.429.429 0 0 1-.23.377c-.073.037-.12.03-.083.03v-1a.813.813 0 0 0-.364.076.572.572 0 0 0-.323.517h1Zm-.313.407.033.003c.023.003.055.009.095.017.083.017.19.044.326.083.27.078.633.197 1.09.36l.335-.942c-.465-.166-.85-.293-1.149-.379-.278-.08-.54-.142-.73-.142v1Zm1.502.446c1.12.515 2.618 1.396 4.501 2.657l.557-.831c-1.899-1.271-3.448-2.187-4.64-2.735l-.418.91Zm5.227 2.465.562-1.125-.894-.447-.563 1.125.895.447Zm.573-1.148c.882-2.017 1.519-3.803 1.902-5.354l-.97-.24c-.367 1.48-.98 3.21-1.848 5.193l.916.4Zm1.902-5.353c.129-.514.213-.963.247-1.342.034-.368.025-.715-.07-1l-.949.316c.03.09.052.275.023.594-.028.309-.1.703-.221 1.19l.97.242Zm.15-2.407a2.082 2.082 0 0 1-.114-.263c-.023-.069-.021-.09-.021-.076h-1c0 .252.113.532.24.786l.895-.447Zm-.135-.34c0 .076-.024.16-.079.232a.332.332 0 0 1-.127.104c-.022.01-.03.008-.01.006a.676.676 0 0 1 .091-.005v-1c-.146 0-.323.013-.482.083a.672.672 0 0 0-.267.206.615.615 0 0 0-.126.375h1Z"/></svg>
